src/assets/icons/lifting.svg

<?xml version="1.0" encoding="UTF-8" standalone="no"?>
<svg width="124px" height="124px" viewBox="0 0 124 124" version="1.1" xmlns="http://www.w3.org/2000/svg" xmlns:xlink="http://www.w3.org/1999/xlink" xmlns:sketch="http://www.bohemiancoding.com/sketch/ns">
    <!-- Generator: Sketch 3.3.3 (12081) - http://www.bohemiancoding.com/sketch -->
    <title>lifting</title>
    <desc>Created with Sketch.</desc>
    <defs></defs>
    <g id="Page-1" stroke-width="1" fill-rule="evenodd" sketch:type="MSPage">
        <g id="lifting" sketch:type="MSLayerGroup">
            <path d="M61.997,6.314 C31.318,6.314 6.359,31.075 6.359,61.511 C6.359,91.946 31.318,116.707 61.997,116.707 C92.676,116.707 117.635,91.946 117.635,61.511 C117.635,31.075 92.676,6.314 61.997,6.314 L61.997,6.314 L61.997,6.314 Z M61.997,123.016 C27.812,123.016 0,95.425 0,61.511 C0,27.597 27.812,0.006 61.997,0.006 C96.182,0.006 123.994,27.597 123.994,61.511 C123.994,95.425 96.182,123.016 61.997,123.016 L61.997,123.016 L61.997,123.016 Z" id="Fill-1" sketch:type="MSShapeGroup"></path>
            <path d="M33.5296,90.4710359 C32.7137436,89.6545436 31.3885333,89.6564513 30.5701333,90.4754872 C29.7517333,91.2938872 29.7498256,92.6184615 30.5663179,93.4343179 C31.3821744,94.2501744 32.7067487,94.2482667 33.5251487,93.4298667 C34.3435487,92.6121026 34.3454564,91.2868923 33.5296,90.4710359" id="Fill-4" fill="currentColor" sketch:type="MSShapeGroup"></path>
            <path d="M66.8137436,66.8194667 C69.4813333,64.1518769 69.4876923,59.8322256 66.8277333,57.1722667 C64.1671385,54.5129436 59.848759,54.5193026 57.1805333,57.1868923 C54.5129436,59.8544821 54.5065846,64.1734974 57.1665436,66.8340923 C59.8265026,69.4934154 64.1461538,69.4876923 66.8137436,66.8194667" id="Fill-5" fill="currentColor" sketch:type="MSShapeGroup"></path>
            <path d="M53.8954872,53.9018462 C56.2788308,51.5185026 56.2845538,47.6598769 53.9082051,45.2841641 C51.5318564,42.9078154 47.6738667,42.9135385 45.2905231,45.2968821 C42.9071795,47.6802256 42.9014564,51.5382154 45.2778051,53.9139282 C47.6541538,56.2909128 51.5121436,56.2851897 53.8954872,53.9018462" id="Fill-6" fill="currentColor" sketch:type="MSShapeGroup"></path>
            <path d="M50.9099487,64.9887179 C50.0432205,61.7399179 46.704759,59.8156923 43.4534154,60.6913231 C40.2014359,61.5669538 38.2670359,64.9105026 39.1331282,68.1605744 C39.9992205,71.4100103 43.3376821,73.3336 46.5902974,72.4586051 C49.841641,71.5829744 51.7754051,68.2387897 50.9099487,64.9887179" id="Fill-7" fill="currentColor" sketch:type="MSShapeGroup"></path>
            <path d="M59.0112821,73.0906872 C55.7618462,72.2245949 52.4176615,74.158359 51.5420308,77.4109744 C50.6664,80.6623179 52.5906256,84.0007795 55.8400615,84.8675077 C59.0894974,85.7336 62.4336821,83.7992 63.3093128,80.5472205 C64.1849436,77.295241 62.2607179,73.9567795 59.0112821,73.0906872" id="Fill-8" fill="currentColor" sketch:type="MSShapeGroup"></path>
            <path d="M70.0987897,70.1045128 C67.7154462,72.4878564 67.7097231,76.3464821 70.0860718,78.7221949 C72.4624205,81.0985436 76.3204103,81.0934564 78.7037538,78.7101128 C81.0870974,76.3267692 81.0928205,72.4681436 78.7158359,70.0924308 C76.3401231,67.7154462 72.4821333,67.7211692 70.0987897,70.1045128" id="Fill-9" fill="currentColor" sketch:type="MSShapeGroup"></path>
            <path d="M73.0849641,59.017641 C73.9504205,62.266441 77.2888821,64.1913026 80.5408615,63.3156718 C83.792841,62.440041 85.727241,59.0958564 84.8611487,55.8457846 C83.9944205,52.5963487 80.655959,50.672759 77.4046154,51.5483897 C74.152,52.4240205 72.2182359,55.7675692 73.0849641,59.017641" id="Fill-10" fill="currentColor" sketch:type="MSShapeGroup"></path>
            <path d="M64.9829949,50.9163077 C68.2324308,51.7817641 71.5772513,49.848 72.4528821,46.5966564 C73.3278769,43.344041 71.4036513,40.0055795 68.1542154,39.1388513 C64.9047795,38.272759 61.5605949,40.207159 60.6849641,43.4591385 C59.8093333,46.7111179 61.733559,50.0495795 64.9829949,50.9163077" id="Fill-11" fill="currentColor" sketch:type="MSShapeGroup"></path>
            <path d="M38.8526974,55.8330667 C39.5254769,53.3339897 38.0470154,50.7687795 35.5498462,50.1029949 C33.0533128,49.4372103 30.4836513,50.9233026 29.8102359,53.4223795 C29.1374564,55.9214564 30.6159179,58.4866667 33.1130872,59.1524513 C35.6102564,59.8182359 38.1799179,58.3321436 38.8526974,55.8330667" id="Fill-12" fill="currentColor" sketch:type="MSShapeGroup"></path>
            <path d="M68.1675692,85.1479385 C65.6684923,85.8200821 64.1824,88.3897436 64.8481846,90.8869128 C65.5133333,93.3847179 68.0791795,94.8631795 70.5776205,94.1897641 C73.0773333,93.5169846 74.5627897,90.9473231 73.8970051,88.4501538 C73.2312205,85.9529846 70.6666462,84.4745231 68.1675692,85.1479385" id="Fill-13" fill="currentColor" sketch:type="MSShapeGroup"></path>
            <path d="M85.1415795,68.1732923 C84.4688,70.6723692 85.9466256,73.2375795 88.4444308,73.9033641 C90.9409641,74.5691487 93.5106256,73.0830564 94.1834051,70.5839795 C94.8568205,68.0855385 93.378359,65.5196923 90.8811897,64.8539077 C88.3833846,64.1881231 85.8137231,65.6748513 85.1415795,68.1732923" id="Fill-14" fill="currentColor" sketch:type="MSShapeGroup"></path>
            <path d="M78.9708308,45.0291692 C80.7971282,46.8548308 83.7623179,46.8510154 85.5937026,45.0196308 C87.4238154,43.1882462 87.4282667,40.2236923 85.6026051,38.3973949 C83.7769436,36.5717333 80.8123897,36.5755487 78.9803692,38.4069333 C77.1496205,40.2383179 77.1458051,43.2035077 78.9708308,45.0291692" id="Fill-15" fill="currentColor" sketch:type="MSShapeGroup"></path>
            <path d="M55.8273436,38.8590564 C58.3257846,38.1862769 59.8125128,35.6166154 59.1460923,33.1194462 C58.4803077,30.6222769 55.9157333,29.1438154 53.4166564,29.8165949 C50.9169436,30.4900103 49.4308513,33.0596718 50.0966359,35.5562051 C50.7630564,38.0533744 53.3276308,39.5318359 55.8273436,38.8590564" id="Fill-16" fill="currentColor" sketch:type="MSShapeGroup"></path>
            <path d="M45.0228103,78.9771897 C43.1971487,77.1515282 40.231959,77.1553436 38.4005744,78.9867282 C36.5691897,80.8181128 36.5653744,83.7826667 38.3910359,85.6089641 C40.2173333,87.4346256 43.1818872,87.4308103 45.0132718,85.6000615 C46.8446564,83.7686769 46.8484718,80.8034872 45.0228103,78.9771897" id="Fill-17" fill="currentColor" sketch:type="MSShapeGroup"></path>
            <path d="M30.2827077,43.7236718 C31.1150974,42.284 30.6101949,40.4367179 29.1546256,39.5973333 C27.6990564,38.7579487 25.8441436,39.2450462 25.0117538,40.6853538 C24.1787282,42.1250256 24.6836308,43.9729436 26.1392,44.8116923 C27.5947692,45.6498051 29.4496821,45.1633436 30.2827077,43.7236718" id="Fill-18" fill="currentColor" sketch:type="MSShapeGroup"></path>
            <path d="M25.3411487,62.0540513 C25.3443282,60.3930872 23.9816,59.0488 22.2996513,59.0507077 C20.6177026,59.0532513 19.2517949,60.4026256 19.2492513,62.0629538 C19.2467077,63.7239179 20.6088,65.068841 22.2907487,65.0662974 C23.9733333,65.0643897 25.3386051,63.7150154 25.3411487,62.0540513" id="Fill-19" fill="currentColor" sketch:type="MSShapeGroup"></path>
            <path d="M30.2203897,80.3729846 C29.3918154,78.9358564 27.5381744,78.4538462 26.0800615,79.2970462 C24.6219487,80.1408821 24.111959,81.9894359 24.9405333,83.4272 C25.7684718,84.8643282 27.6221128,85.3457026 29.0802256,84.5025026 C30.5383385,83.6593026 31.0489641,81.8107487 30.2203897,80.3729846" id="Fill-20" fill="currentColor" sketch:type="MSShapeGroup"></path>
            <path d="M43.6123897,93.7713436 C42.1752615,92.9427692 40.3260718,93.4533949 39.4828718,94.9115077 C38.6396718,96.3696205 39.1210462,98.2226256 40.5588103,99.0512 C41.9959385,99.8797744 43.8451282,99.3697846 44.6883282,97.9116718 C45.5315282,96.453559 45.0495179,94.5999179 43.6123897,93.7713436" id="Fill-21" fill="currentColor" sketch:type="MSShapeGroup"></path>
            <path d="M61.9287795,98.6594872 C60.2678154,98.6620308 58.9190769,100.026667 58.9165333,101.709887 C58.9139897,103.3912 60.2589128,104.753928 61.9198769,104.751385 C63.580841,104.748841 64.9295795,103.382297 64.9321231,101.700349 C64.9346667,100.0184 63.5897436,98.6569436 61.9287795,98.6594872" id="Fill-22" fill="currentColor" sketch:type="MSShapeGroup"></path>
            <path d="M80.2623385,93.7268308 C78.8220308,94.5585846 78.3349333,96.4141333 79.1743179,97.8697026 C80.0124308,99.3252718 81.8603487,99.8301744 83.3000205,98.9977846 C84.7396923,98.164759 85.2267897,96.3098462 84.388041,94.8542769 C83.5486564,93.3987077 81.7013744,92.8938051 80.2623385,93.7268308" id="Fill-23" fill="currentColor" sketch:type="MSShapeGroup"></path>
            <path d="M93.6994872,80.2954051 C92.8658256,81.7350769 93.372,83.582359 94.8275692,84.4217436 C96.2825026,85.2604923 98.1380513,84.7733949 98.970441,83.3337231 C99.8034667,81.8940513 99.2979282,80.0461333 97.842359,79.2073846 C96.3867897,78.3686359 94.5325128,78.8557333 93.6994872,80.2954051" id="Fill-24" fill="currentColor" sketch:type="MSShapeGroup"></path>
            <path d="M98.6404103,61.9643897 C98.6378667,63.6253538 99.999959,64.9702769 101.681908,64.9677333 C103.364492,64.9651897 104.729764,63.6164513 104.732308,61.9554872 C104.734851,60.295159 103.373395,58.9496 101.691446,58.9521436 C100.008226,58.9546872 98.6435897,60.3034256 98.6404103,61.9643897" id="Fill-25" fill="currentColor" sketch:type="MSShapeGroup"></path>
            <path d="M93.7611692,43.6460923 C94.5897436,45.0832205 96.4440205,45.5652308 97.9021333,44.7213949 C99.3602462,43.8781949 99.8702359,42.0290051 99.0410256,40.5925128 C98.2137231,39.1547487 96.3594462,38.6733744 94.9013333,39.5159385 C93.4432205,40.3597744 92.9332308,42.2089641 93.7611692,43.6460923" id="Fill-26" fill="currentColor" sketch:type="MSShapeGroup"></path>
            <path d="M80.3698051,30.2477333 C81.8062974,31.0756718 83.6561231,30.5656821 84.4993231,29.1075692 C85.3418872,27.6494564 84.8611487,25.7964513 83.4227487,24.967241 C81.9862564,24.1393026 80.1364308,24.6486564 79.2932308,26.1067692 C78.4500308,27.5648821 78.9326769,29.4185231 80.3698051,30.2477333" id="Fill-27" fill="currentColor" sketch:type="MSShapeGroup"></path>
            <path d="M62.0534154,25.3595897 C63.7137436,25.3570462 65.0624821,23.9917744 65.0650256,22.3091897 C65.0675692,20.627241 63.7226462,19.2651487 62.0623179,19.2676923 C60.4007179,19.2702359 59.0526154,20.6361436 59.0494359,22.3180923 C59.0468923,24.000041 60.3924513,25.3621333 62.0534154,25.3595897" id="Fill-28" fill="currentColor" sketch:type="MSShapeGroup"></path>
            <path d="M43.7198564,30.2922462 C45.1595282,29.4598564 45.6466256,27.6043077 44.8078769,26.1487385 C43.9691282,24.6931692 42.1212103,24.1882667 40.6815385,25.0212923 C39.2418667,25.8536821 38.7547692,27.7085949 39.5935179,29.1641641 C40.4329026,30.6197333 42.2801846,31.1252718 43.7198564,30.2922462" id="Fill-29" fill="currentColor" sketch:type="MSShapeGroup"></path>
            <path d="M33.6122667,33.6186256 C34.4313026,32.8002256 34.4325744,31.4756513 33.6173538,30.659159 C32.8014974,29.8433026 31.4762872,29.8452103 30.6572513,30.6636103 C29.8394872,31.4820103 29.8369436,32.8072205 30.6534359,33.6230769 C31.4699282,34.4389333 32.7945026,34.4376615 33.6122667,33.6186256" id="Fill-30" fill="currentColor" sketch:type="MSShapeGroup"></path>
            <path d="M23.181641,51.6558564 C23.4824205,50.5385846 22.8217231,49.3920615 21.7057231,49.0944615 C20.5897231,48.7974974 19.4412923,49.4613744 19.1411487,50.5780103 C18.8403692,51.6946462 19.5010667,52.8411692 20.6164308,53.1394051 C21.7324308,53.4357333 22.8808615,52.7718564 23.181641,51.6558564" id="Fill-31" fill="currentColor" sketch:type="MSShapeGroup"></path>
            <path d="M23.1511179,72.4643282 C22.8541538,71.3483282 21.7069949,70.6876308 20.590359,70.9884103 C19.474359,71.2898256 18.8104821,72.4376205 19.1074462,73.5536205 C19.4050462,74.6689846 20.5509333,75.3296821 21.6675692,75.0295385 C22.784841,74.7293949 23.4493538,73.5803282 23.1511179,72.4643282" id="Fill-32" fill="currentColor" sketch:type="MSShapeGroup"></path>
            <path d="M51.5356718,100.848882 C50.4196718,100.551282 49.271241,101.215795 48.9704615,102.332431 C48.6703179,103.449067 49.3310154,104.596226 50.4463795,104.892554 C51.5623795,105.190154 52.7108103,104.526277 53.0115897,103.409641 C53.3123692,102.293005 52.6516718,101.146482 51.5356718,100.848882" id="Fill-33" fill="currentColor" sketch:type="MSShapeGroup"></path>
            <path d="M72.3454154,100.818359 C71.2281436,101.119774 70.5636308,102.267569 70.8618667,103.383569 C71.1588308,104.498933 72.3059897,105.159631 73.4226256,104.859487 C74.5392615,104.558708 75.2037744,103.410277 74.9055385,102.294277 C74.6085744,101.178913 73.4614154,100.517579 72.3454154,100.818359" id="Fill-34" fill="currentColor" sketch:type="MSShapeGroup"></path>
            <path d="M90.3820103,90.3877333 C89.5636103,91.2061333 89.5610667,92.5307077 90.3769231,93.3472 C91.1927795,94.1630564 92.5179897,94.1611487 93.3363897,93.3427487 C94.1547897,92.5243487 94.1566974,91.1991385 93.340841,90.3832821 C92.5243487,89.5674256 91.2004103,89.5693333 90.3820103,90.3877333" id="Fill-35" fill="currentColor" sketch:type="MSShapeGroup"></path>
            <path d="M100.812,72.3517744 C100.511856,73.4677744 101.172554,74.6142974 102.288554,74.9118974 C103.403918,75.2094974 104.552985,74.5449846 104.853128,73.4283487 C105.153908,72.3117128 104.49321,71.1651897 103.377846,70.8682256 C102.26121,70.5699897 101.113415,71.2345026 100.812,72.3517744" id="Fill-36" fill="currentColor" sketch:type="MSShapeGroup"></path>
            <path d="M100.843159,51.5420308 C101.140123,52.6580308 102.286646,53.3187282 103.403282,53.0179487 C104.520554,52.7171692 105.183795,51.5687385 104.886195,50.4527385 C104.589867,49.3373744 103.442708,48.676041 102.326072,48.9768205 C101.209436,49.2776 100.544923,50.4260308 100.843159,51.5420308" id="Fill-37" fill="currentColor" sketch:type="MSShapeGroup"></path>
            <path d="M90.4646769,33.535959 C91.2805333,34.3518154 92.6057436,34.3499077 93.4241436,33.5315077 C94.2419077,32.7131077 94.2444513,31.3885333 93.427959,30.5726769 C92.6121026,29.7561846 91.2875282,29.7580923 90.4691282,30.5764923 C89.6500923,31.3948923 89.6488205,32.7201026 90.4646769,33.535959" id="Fill-38" fill="currentColor" sketch:type="MSShapeGroup"></path>
            <path d="M72.4586051,23.1574769 C73.5739692,23.4550769 74.7230359,22.7905641 75.0231795,21.6739282 C75.323959,20.5572923 74.6632615,19.4107692 73.5478974,19.1138051 C72.4312615,18.8162051 71.2834667,19.4800821 70.9820513,20.5967179 C70.6812718,21.7133538 71.3419692,22.8598769 72.4586051,23.1574769" id="Fill-39" fill="currentColor" sketch:type="MSShapeGroup"></path>
            <path d="M51.6494974,23.188 C52.7661333,22.8872205 53.4293744,21.7387897 53.1330462,20.6227897 C52.8348103,19.5074256 51.6889231,18.8467282 50.5716513,19.1475077 C49.4556513,19.4476513 48.7911385,20.5960821 49.0881026,21.7120821 C49.3863385,22.8280821 50.5322256,23.4887795 51.6494974,23.188" id="Fill-40" fill="currentColor" sketch:type="MSShapeGroup"></path>
            <path d="M42.1822564,42.1886154 C43.6410051,40.7298667 43.6448205,38.3687795 42.1905231,36.9144821 C40.7362256,35.4601846 38.3751385,35.464 36.9163897,36.9221128 C35.4582769,38.3808615 35.4538256,40.7419487 36.908759,42.1962462 C38.3630564,43.6511795 40.7241436,43.6473641 42.1822564,42.1886154" id="Fill-41" fill="currentColor" sketch:type="MSShapeGroup"></path>
            <path d="M34.9298462,69.2555897 C34.3956923,67.263959 32.3525538,66.0792821 30.3660103,66.6121641 C28.3794667,67.1444103 27.2017846,69.1913641 27.7359385,71.1836308 C28.2694564,73.1758974 30.3125949,74.3599385 32.2997744,73.8276923 C34.2869538,73.2948103 35.4646359,71.2478564 34.9298462,69.2555897" id="Fill-42" fill="currentColor" sketch:type="MSShapeGroup"></path>
            <path d="M54.7444103,89.0707897 C52.7521436,88.5366359 50.7051897,89.7136821 50.1729436,91.7002256 C49.6406974,93.6867692 50.8241026,95.7305436 52.8170051,96.2640615 C54.8092718,96.7982154 56.8555897,95.6205333 57.3878359,93.6339897 C57.9207179,91.6474462 56.7366769,89.6043077 54.7444103,89.0707897" id="Fill-43" fill="currentColor" sketch:type="MSShapeGroup"></path>
            <path d="M81.8113846,81.8177436 C80.3526359,83.2764923 80.3494564,85.6375795 81.8037538,87.0918769 C83.2580513,88.5461744 85.6191385,88.5417231 87.0785231,87.0842462 C88.536,85.6254974 88.5398154,83.2644103 87.0855179,81.8101128 C85.6312205,80.3551795 83.2701333,80.3589949 81.8113846,81.8177436" id="Fill-44" fill="currentColor" sketch:type="MSShapeGroup"></path>
            <path d="M89.0644308,54.7507692 C89.5979487,56.7430359 91.6410872,57.9270769 93.6276308,57.3941949 C95.6141744,56.8619487 96.7918564,54.8149949 96.2577026,52.8233641 C95.7248205,50.8304615 93.6810462,49.6470564 91.6945026,50.1786667 C89.7073231,50.7115487 88.5302769,52.7585026 89.0644308,54.7507692" id="Fill-45" fill="currentColor" sketch:type="MSShapeGroup"></path>
            <path d="M69.2492308,34.9362051 C71.2414974,35.470359 73.2890872,34.2926769 73.8213333,32.3054974 C74.3535795,30.3189538 73.1701744,28.2758154 71.1772718,27.7422974 C69.1850051,27.2081436 67.1380513,28.3858256 66.606441,30.3723692 C66.073559,32.3589128 67.2576,34.4020513 69.2492308,34.9362051" id="Fill-46" fill="currentColor" sketch:type="MSShapeGroup"></path>
        </g>
    </g>
</svg>

<svg width="124" height="124" xmlns="http://www.w3.org/2000/svg"><g fill-rule="evenodd"><path d="M61.997 6.314c-30.679 0-55.638 24.761-55.638 55.197 0 30.435 24.959 55.196 55.638 55.196s55.638-24.761 55.638-55.196c0-30.436-24.959-55.197-55.638-55.197zm0 116.702C27.812 123.016 0 95.425 0 61.511S27.812.006 61.997.006s61.997 27.591 61.997 61.505-27.812 61.505-61.997 61.505z"/><path d="M33.53 90.471a2.092 2.092 0 00-2.96.004 2.092 2.092 0 00-.004 2.96c.816.815 2.14.813 2.96-.005.818-.818.82-2.143.004-2.959M66.814 66.82c2.667-2.668 2.674-6.988.014-9.648-2.66-2.66-6.98-2.653-9.647.015-2.668 2.667-2.674 6.986-.014 9.647 2.66 2.66 6.98 2.654 9.647-.015M53.895 53.902c2.384-2.383 2.39-6.242.013-8.618-2.376-2.376-6.234-2.37-8.617.013-2.384 2.383-2.39 6.241-.013 8.617 2.376 2.377 6.234 2.371 8.617-.012M50.91 64.989a6.076 6.076 0 00-7.457-4.298c-3.252.876-5.186 4.22-4.32 7.47a6.076 6.076 0 007.457 4.298 6.114 6.114 0 004.32-7.47M59.011 73.09c-3.25-.865-6.593 1.068-7.469 4.321a6.075 6.075 0 004.298 7.457c3.25.866 6.594-1.069 7.47-4.32a6.075 6.075 0 00-4.299-7.457M70.099 70.105c-2.384 2.383-2.39 6.241-.013 8.617 2.376 2.377 6.234 2.371 8.618-.012 2.383-2.383 2.389-6.242.012-8.618-2.376-2.377-6.234-2.37-8.617.013M73.085 59.018a6.074 6.074 0 007.456 4.298c3.252-.876 5.186-4.22 4.32-7.47a6.075 6.075 0 00-7.456-4.298 6.11 6.11 0 00-4.32 7.47M64.983 50.916a6.114 6.114 0 007.47-4.32 6.077 6.077 0 00-4.299-7.457c-3.25-.866-6.593 1.068-7.469 4.32a6.076 6.076 0 004.298 7.457M38.853 55.833a4.668 4.668 0 00-3.303-5.73 4.697 4.697 0 00-5.74 3.32 4.668 4.668 0 003.303 5.73 4.696 4.696 0 005.74-3.32M68.168 85.148a4.695 4.695 0 00-3.32 5.739 4.667 4.667 0 005.73 3.303 4.696 4.696 0 003.319-5.74 4.667 4.667 0 00-5.73-3.302M85.142 68.173a4.668 4.668 0 003.302 5.73 4.696 4.696 0 005.74-3.319 4.668 4.668 0 00-3.303-5.73 4.696 4.696 0 00-5.74 3.32M78.97 45.03a4.684 4.684 0 006.624-.01 4.684 4.684 0 00.009-6.623 4.683 4.683 0 00-6.623.01 4.684 4.684 0 00-.01 6.622M55.827 38.86a4.696 4.696 0 003.32-5.74 4.668 4.668 0 00-5.73-3.303 4.697 4.697 0 00-3.32 5.74 4.669 4.669 0 005.73 3.302M45.023 78.977a4.683 4.683 0 00-6.622.01 4.683 4.683 0 00-.01 6.622 4.684 4.684 0 006.622-.009 4.684 4.684 0 00.01-6.623M30.283 43.724c.832-1.44.327-3.287-1.128-4.127-1.456-.84-3.31-.352-4.143 1.088-.833 1.44-.328 3.288 1.127 4.127 1.456.838 3.31.351 4.144-1.088M25.341 62.054c.003-1.66-1.36-3.005-3.041-3.003-1.682.002-3.048 1.352-3.05 3.012-.003 1.66 1.359 3.006 3.04 3.003 1.683-.002 3.049-1.351 3.051-3.012M30.22 80.373c-.828-1.437-2.682-1.92-4.14-1.076-1.458.844-1.968 2.692-1.14 4.13.828 1.437 2.682 1.919 4.14 1.076 1.458-.844 1.969-2.692 1.14-4.13M43.612 93.771c-1.437-.828-3.286-.318-4.13 1.14-.842 1.459-.361 3.312 1.077 4.14 1.437.829 3.286.319 4.13-1.14.843-1.457.36-3.311-1.077-4.14M61.929 98.66c-1.661.002-3.01 1.367-3.012 3.05-.003 1.681 1.342 3.044 3.003 3.041 1.66-.002 3.01-1.369 3.012-3.05.003-1.683-1.342-3.044-3.003-3.042M80.262 93.727c-1.44.832-1.927 2.687-1.088 4.143.838 1.455 2.686 1.96 4.126 1.128 1.44-.833 1.927-2.688 1.088-4.144-.84-1.455-2.687-1.96-4.126-1.127M93.7 80.295c-.834 1.44-.328 3.287 1.128 4.127 1.455.838 3.31.351 4.142-1.088.833-1.44.328-3.288-1.128-4.127-1.455-.838-3.31-.351-4.143 1.088M98.64 61.964c-.002 1.661 1.36 3.006 3.042 3.004 1.682-.003 3.048-1.352 3.05-3.013.003-1.66-1.359-3.005-3.04-3.003-1.684.003-3.048 1.351-3.052 3.012M93.761 43.646c.829 1.437 2.683 1.92 4.141 1.075 1.458-.843 1.968-2.692 1.139-4.128-.827-1.438-2.682-1.92-4.14-1.077-1.458.844-1.968 2.693-1.14 4.13M80.37 30.248c1.436.828 3.286.318 4.13-1.14.842-1.459.361-3.312-1.077-4.14-1.437-.829-3.287-.32-4.13 1.139-.843 1.458-.36 3.312 1.077 4.14M62.053 25.36c1.66-.003 3.01-1.368 3.012-3.05.003-1.683-1.342-3.045-3.003-3.042-1.661.002-3.01 1.368-3.013 3.05-.002 1.682 1.343 3.044 3.004 3.042M43.72 30.292c1.44-.832 1.927-2.688 1.088-4.143-.839-1.456-2.687-1.96-4.126-1.128-1.44.833-1.927 2.688-1.088 4.143.839 1.456 2.686 1.961 4.126 1.128M33.612 33.619c.82-.819.82-2.143.005-2.96a2.094 2.094 0 00-2.96.005 2.093 2.093 0 00-.004 2.96 2.092 2.092 0 002.96-.005M23.182 51.656a2.087 2.087 0 00-1.476-2.562 2.099 2.099 0 00-2.565 1.484 2.087 2.087 0 001.475 2.561 2.1 2.1 0 002.566-1.483M23.151 72.464a2.086 2.086 0 00-2.56-1.476 2.1 2.1 0 00-1.484 2.566 2.087 2.087 0 002.56 1.476 2.098 2.098 0 001.484-2.566M51.536 100.849a2.1 2.1 0 00-2.566 1.483 2.086 2.086 0 001.476 2.56 2.099 2.099 0 002.566-1.482 2.086 2.086 0 00-1.476-2.561M72.345 100.818a2.098 2.098 0 00-1.483 2.566 2.087 2.087 0 002.56 1.475 2.098 2.098 0 001.484-2.565 2.086 2.086 0 00-2.56-1.476M90.382 90.388a2.093 2.093 0 00-.005 2.96 2.093 2.093 0 002.96-.005c.818-.819.82-2.144.004-2.96a2.092 2.092 0 00-2.959.005M100.812 72.352a2.087 2.087 0 001.477 2.56 2.099 2.099 0 002.564-1.484 2.085 2.085 0 00-1.475-2.56 2.099 2.099 0 00-2.566 1.484M100.843 51.542a2.085 2.085 0 002.56 1.476 2.098 2.098 0 001.483-2.565 2.085 2.085 0 00-2.56-1.476 2.098 2.098 0 00-1.483 2.565M90.465 33.536a2.093 2.093 0 002.96-.004c.817-.819.82-2.143.003-2.96a2.092 2.092 0 00-2.959.004 2.092 2.092 0 00-.004 2.96M72.459 23.157a2.099 2.099 0 002.564-1.483 2.085 2.085 0 00-1.475-2.56 2.1 2.1 0 00-2.566 1.483 2.086 2.086 0 001.477 2.56M51.65 23.188a2.1 2.1 0 001.483-2.565 2.087 2.087 0 00-2.561-1.475 2.1 2.1 0 00-1.484 2.564 2.087 2.087 0 002.561 1.476M42.182 42.189a3.73 3.73 0 00.009-5.275 3.73 3.73 0 00-5.275.008 3.73 3.73 0 00-.007 5.274 3.728 3.728 0 005.273-.007M34.93 69.256a3.73 3.73 0 00-4.564-2.644 3.73 3.73 0 00-2.63 4.572 3.73 3.73 0 004.564 2.644 3.73 3.73 0 002.63-4.572M54.744 89.07a3.729 3.729 0 00-4.571 2.63 3.73 3.73 0 002.644 4.564 3.728 3.728 0 004.57-2.63 3.728 3.728 0 00-2.643-4.563M81.811 81.818a3.73 3.73 0 00-.007 5.274 3.731 3.731 0 005.275-.008 3.73 3.73 0 00.007-5.274 3.729 3.729 0 00-5.275.008M89.064 54.75a3.728 3.728 0 004.564 2.644 3.729 3.729 0 002.63-4.57 3.73 3.73 0 00-4.563-2.645 3.73 3.73 0 00-2.63 4.572M69.25 34.936a3.73 3.73 0 004.571-2.63 3.729 3.729 0 00-2.644-4.564 3.728 3.728 0 00-4.57 2.63 3.73 3.73 0 002.642 4.564" fill="currentColor"/></g></svg>
